public/img/field-8.svg

<svg width="73" height="64" viewBox="0 0 73 64" fill="none" xmlns="http://www.w3.org/2000/svg">
<rect x="73" y="35" width="10" height="38" transform="rotate(90 73 35)" fill="#715F7A"/>
<path d="M57.7848 50.3474C57.0922 46.1884 54.176 42.7758 50.175 41.4421L41.2934 38.4816V37.1613H39.2289V38.686C38.1316 39.4158 35.0194 41.2903 32.0031 41.2903C28.9869 41.2903 25.8746 39.4158 24.7773 38.686V37.1613H22.7128V38.4816L13.8312 41.4421C9.83125 42.7758 6.91512 46.1884 6.22144 50.3474L3.94531 64H60.0599L57.7848 50.3474ZM23.5789 40.3696C24.8062 41.1985 28.351 43.3549 32.0031 43.3549C35.6552 43.3549 39.2 41.1985 40.4274 40.3696L42.2204 40.9673L32.0031 51.1856L21.7848 40.9673L23.5789 40.3696ZM30.9709 61.9355H15.5954L16.5141 52.7484L14.4599 52.543L13.5205 61.9365H6.38351L8.25809 50.6891C8.8248 47.2857 11.2114 44.4945 14.4847 43.4023L14.9512 43.2465L30.9709 59.2661V61.9355ZM17.1396 42.5156L19.5954 41.6971L32.0031 54.1048L44.4109 41.6971L46.8666 42.5156L32.0031 57.3791L17.1396 42.5156ZM50.4857 61.9355L49.5463 52.542L47.4921 52.7474L48.4109 61.9345H33.0354V59.2651L49.056 43.2444L49.5226 43.4003C52.7959 44.4914 55.1814 47.2836 55.7492 50.687L57.6227 61.9355H50.4857Z" fill="#472880"/>
<path d="M13.4201 22.7097C13.4201 21.3657 12.554 20.2302 11.3556 19.8028V11.296L16.5169 14.9822V18.6065C15.2709 19.5499 14.4524 21.0302 14.4524 22.7086C14.4524 25.3574 16.4653 27.521 19.0377 27.8121C19.5641 29.6237 20.5365 31.2846 21.9073 32.6555L25.9331 36.6813C26.9076 37.6568 28.2031 38.1936 29.5822 38.1936H34.4204C35.7984 38.1936 37.0949 37.6568 38.0694 36.6823L42.0952 32.6565C43.466 31.2857 44.4384 29.6237 44.9649 27.8132C47.5362 27.5221 49.5491 25.3585 49.5491 22.7097C49.5491 21.0302 48.7306 19.5499 47.4846 18.6075V14.9832L54.7104 9.82194V6.46916L34.376 0.0474839L29.9362 0L9.29108 6.46916V9.29032V9.82194V19.8039C8.09263 20.2302 7.22656 21.3657 7.22656 22.7097V26.8387H13.4201V22.7097ZM16.5169 22.7097C16.5169 21.3657 17.3829 20.2302 18.5814 19.8028V24.6276C18.5814 24.9652 18.601 25.2996 18.6299 25.632C17.4067 25.2181 16.5169 24.0712 16.5169 22.7097ZM43.3556 24.6276C43.3556 27.1092 42.3894 29.4421 40.6346 31.1969L36.6088 35.2227C36.0328 35.7987 35.2348 36.129 34.4193 36.129H29.5811C28.7657 36.129 27.9688 35.7987 27.3917 35.2227L23.3659 31.1969C21.6111 29.4421 20.6449 27.1092 20.6449 24.6276V18.8284C23.1791 18.2524 27.242 17.5484 32.0008 17.5484C36.7512 17.5484 40.8193 18.2534 43.3556 18.8294V24.6276ZM32.0008 15.4839C25.8547 15.4839 20.8751 16.5894 18.5814 17.2046V15.2196C20.4054 14.7025 25.5801 13.4194 32.0008 13.4194C38.4059 13.4194 43.593 14.7035 45.4201 15.2196V17.2036C43.1264 16.5894 38.1468 15.4839 32.0008 15.4839ZM45.3716 25.631C45.4005 25.2996 45.4201 24.9652 45.4201 24.6276V19.8028C46.6186 20.2302 47.4846 21.3657 47.4846 22.7097C47.4846 24.0712 46.5948 25.2181 45.3716 25.631ZM11.3556 7.98245L30.0952 2.06452H33.9053L52.6459 7.98245V8.75871L46.2686 13.3141C44.618 12.8237 39.0924 11.3548 32.0008 11.3548C24.9091 11.3548 19.3835 12.8237 17.7329 13.3141L11.3556 8.75871V7.98245ZM11.3556 24.7742H9.29108V22.7097C9.29108 22.1409 9.75456 21.6774 10.3233 21.6774C10.8921 21.6774 11.3556 22.1409 11.3556 22.7097V24.7742Z" fill="#472880"/>
<path d="M13.42 28.9032H11.3555V35.0967H13.42V28.9032Z" fill="#472880"/>
<path d="M9.29108 28.9032H7.22656V35.0967H9.29108V28.9032Z" fill="#472880"/>
</svg>

<svg width="73" height="64" fill="none" xmlns="http://www.w3.org/2000/svg"><path fill="#715F7A" d="M73 35v10H35V35z"/><path d="M57.785 50.347a11.329 11.329 0 00-7.61-8.905l-8.882-2.96v-1.32H39.23v1.524c-1.097.73-4.21 2.604-7.226 2.604s-6.128-1.874-7.226-2.604v-1.525h-2.064v1.32l-8.882 2.961a11.332 11.332 0 00-7.61 8.905L3.945 64H60.06l-2.275-13.653zM23.579 40.37c1.227.829 4.772 2.985 8.424 2.985 3.652 0 7.197-2.156 8.424-2.985l1.793.597-10.217 10.219-10.218-10.219 1.794-.597zm7.392 21.566H15.595l.92-9.188-2.055-.205-.94 9.394H6.385l1.874-11.248a9.271 9.271 0 016.227-7.287l.466-.156 16.02 16.02v2.67zM17.14 42.515l2.455-.819 12.408 12.408 12.408-12.408 2.456.819-14.864 14.863L17.14 42.516zm33.346 19.42l-.94-9.394-2.054.205.919 9.188H33.035v-2.67l16.021-16.02.467.155a9.271 9.271 0 016.226 7.287l1.874 11.248h-7.137z" fill="#472880"/><path d="M13.42 22.71c0-1.344-.866-2.48-2.064-2.907v-8.507l5.16 3.686v3.625c-1.245.943-2.064 2.423-2.064 4.102 0 2.648 2.013 4.812 4.586 5.103a11.285 11.285 0 002.87 4.844l4.025 4.025a5.123 5.123 0 003.65 1.513h4.837a5.128 5.128 0 003.65-1.512l4.025-4.026a11.292 11.292 0 002.87-4.843c2.571-.29 4.584-2.454 4.584-5.103 0-1.68-.818-3.16-2.064-4.102v-3.625l7.225-5.161V6.469L34.376.047 29.936 0 9.291 6.47v13.334a3.09 3.09 0 00-2.064 2.906v4.129h6.193v-4.13zm3.097 0c0-1.344.866-2.48 2.064-2.907v4.825c0 .337.02.672.049 1.004a3.093 3.093 0 01-2.113-2.922zm26.839 1.918a9.23 9.23 0 01-2.721 6.569l-4.026 4.026a3.118 3.118 0 01-2.19.906h-4.838a3.12 3.12 0 01-2.19-.906l-4.025-4.026a9.23 9.23 0 01-2.721-6.57v-5.799A52.096 52.096 0 0132 17.548c4.75 0 8.818.705 11.355 1.281v5.799zM32 15.484c-6.146 0-11.126 1.105-13.42 1.72V15.22c1.824-.518 7-1.8 13.42-1.8 6.405 0 11.592 1.284 13.42 1.8v1.984c-2.295-.615-7.274-1.72-13.42-1.72zM45.37 25.63c.03-.331.05-.666.05-1.003v-4.825a3.093 3.093 0 012.064 2.907 3.09 3.09 0 01-2.113 2.921zM11.357 7.982l18.74-5.917h3.81l18.74 5.917v.777l-6.377 4.555c-1.651-.49-7.177-1.96-14.268-1.96-7.092 0-12.617 1.47-14.268 1.96L11.356 8.76v-.777zm0 16.792H9.29V22.71c0-.57.464-1.033 1.032-1.033.57 0 1.033.464 1.033 1.033v2.064z" fill="#472880"/><path d="M13.42 28.903h-2.065v6.194h2.065v-6.194zm-4.129 0H7.227v6.194H9.29v-6.194z" fill="#472880"/></svg>
